X:0639
M:C|
L:1/8
Q:1/2=104
K:G
   g2dB G2BG|E2AE FDDF|g2dB G2BG|EAFD G2 [1 G2:|\
                                         [2 G ||
 g|efge fgab|gfge fddf|efge fgag|fefd g2

